src/img/list-builder.svg

<svg width="32" height="32" viewBox="0 0 32 32" fill="none" xmlns="http://www.w3.org/2000/svg">
<path fill-rule="evenodd" clip-rule="evenodd" d="M6 30H12V28H6V4H22V14H24V4C24 2.9 23.1 2 22 2H6C4.9 2 4 2.9 4 4V28C4 29.1 4.9 30 6 30ZM26.7094 16.2894L29.7094 19.2894C30.0994 19.6794 30.0994 20.3094 29.7094 20.6994L20.4194 29.9894H16.0094V25.5794L25.2994 16.2894C25.6894 15.8994 26.3194 15.8994 26.7094 16.2894ZM17.9994 27.9994H19.5894L24.5894 22.9994L22.9994 21.4094L17.9994 26.4094V27.9994ZM24.4094 19.9994L25.9994 21.5894L27.5894 19.9994L25.9994 18.4094L24.4094 19.9994ZM17 15H11C9.34 15 8 16.34 8 18V19H10V18C10 17.45 10.45 17 11 17H17C17.55 17 18 17.45 18 18V19H20V18C20 16.34 18.66 15 17 15ZM18 10C18 12.21 16.21 14 14 14C11.79 14 10 12.21 10 10C10 7.79 11.79 6 14 6C16.21 6 18 7.79 18 10ZM16 10C16 8.9 15.1 8 14 8C12.9 8 12 8.9 12 10C12 11.1 12.9 12 14 12C15.1 12 16 11.1 16 10Z" fill="url(#paint0_linear_464_5913)"/>
<defs>
<linearGradient id="paint0_linear_464_5913" x1="4" y1="2.48291" x2="30.6667" y2="30.4823" gradientUnits="userSpaceOnUse">
<stop stop-color="#07A0C3"/>
<stop offset="1" stop-color="#59E0FF"/>
</linearGradient>
</defs>
</svg>

<svg width="32" height="32" fill="none" xmlns="http://www.w3.org/2000/svg"><path fill-rule="evenodd" clip-rule="evenodd" d="M6 30h6v-2H6V4h16v10h2V4c0-1.1-.9-2-2-2H6c-1.1 0-2 .9-2 2v24c0 1.1.9 2 2 2zm20.71-13.71l3 3c.39.39.39 1.02 0 1.41l-9.29 9.29h-4.41v-4.41l9.29-9.29a.996.996 0 011.41 0zM18 28h1.59l5-5L23 21.41l-5 5V28zm6.41-8L26 21.59 27.59 20 26 18.41 24.41 20zM17 15h-6c-1.66 0-3 1.34-3 3v1h2v-1c0-.55.45-1 1-1h6c.55 0 1 .45 1 1v1h2v-1c0-1.66-1.34-3-3-3zm1-5c0 2.21-1.79 4-4 4s-4-1.79-4-4 1.79-4 4-4 4 1.79 4 4zm-2 0c0-1.1-.9-2-2-2s-2 .9-2 2 .9 2 2 2 2-.9 2-2z" fill="url(#paint0_linear_464_5913)"/><defs><linearGradient id="paint0_linear_464_5913" x1="4" y1="2.483" x2="30.667" y2="30.482" gradientUnits="userSpaceOnUse"><stop stop-color="#07A0C3"/><stop offset="1" stop-color="#59E0FF"/></linearGradient></defs></svg>
